X:1
T:To the Harvest Field
T:To the Harvest Field
T:Charles Hutchinson Gabriel
T:Charles Hutchinson Gabriel, 1896
T:Public Domain Courtesy of the Cyber Hymnal™
T:Public Domain Courtesy of the Cyber Hymnal™
C:Charles Hutchinson Gabriel
Z:Public Domain
Z:Courtesy of the Cyber Hymnal™
%%score ( 1 2 ) 3
L:1/8
Q:1/4=105
M:4/4
K:Bb
V:1 treble 
V:2 treble 
V:3 bass 
V:1
 [DF][B,D][CE] | [DF]2 [DF]2 [DG]2 [B,D]2 | [DF]4 z [DF][B,D][CE] | [DF]2 [DF]2 [DG]2 [B,D]2 | %4
w: 1.~A band of|faith- ful reap- ers|we, Who ga- ther|for e- ter- ni-|
w: 2.~We are a|faith- ful glean- ing|band, And la- bor|at our Lord’s com-|
w: 3.~The gold- en|hours like mo- ments|fly, And har- vest|days are pass- ing|
 [EF]4 z [EF]E[EF] | [EA]2 [Ec]2 [Ge]2 [Ge]2 | [Fd]3 [Ec] [DB]2 [Fd]2 | [=Ec]2 [EG]2 [EA]2 [EB]2 | %8
w: ty, The gold- en|sheaves of rip- ened|grain From ev- ery|val- ley, hill and|
w: mand, Un- yield- ing,|loy- al, tried and|true, For lo! the|reap- ers are but|
w: by; Then take thy|rus- ty sic- kle|down, And la- bor|for a fade- less|
 [_Ec]4 z [DF][B,D][CE] | [DF]2 [DF]2 [DG]2 [B,D]2 | [DF]4 z [DF][B,D][CE] | %11
w: plain Our song is|one the reap- ers|sing, In hon- or|
w: few; Be- hold the|wav- ing har- vest|field, A- bun- dant|
w: crown; Why will you|id- ly stand and|wait? Be- hold, the|
 [DF]2 [DF]2 [DG]2 [B,D]2 | [DF]4 z [D=E][DF][DG] | [CA]2 [GB]2 [=Ec]2 [Bd]2 | %14
w: of their Lord and|king— The Mas- ter|of the har- vest|
w: with a gold- en|yield; And hear the|Lord of har- vest|
w: hour is grow- ing|late! Can you to|judg- ment bring but|
 [Ac]3 [GB] [FA]2 [FA]2 | [=Ec]2 [DB]2 [CA]2 [B,G]2 | [A,F]6 (3(ABc) || %17
w: wide, Who for a|world of sin- ners|died. * * *|
w: say To all: “Go|reap for Me to-|day.” * * *|
w: leaves, While here are|wait- ing gold- en|sheaves? * * *|
"^Refrain" [Fd]2 [Fd]2 [Fd]2 [Fd]2 | [Fd]3 [Ec] [DB]4 | [DF]2 [DF]2 [DG]2 [B,D]2 | %20
w: |||
w: To the har- vest|field a- way,|For the Mas- ter|
w: |||
 [DF]4 [CE]2 (3(FAc) | [Ae]2 [Ae]2 [Ge]2 [Ge]2 | [Ge]3 [Fd] [Ec]4 | [EA]2 [EB]2 [EG]2 [EA]2 | %24
w: ||||
w: call- eth; * * *|There is work for|all to- day,|Ere the dark- ness|
w: ||||
 [^CG]4 [DF]2 (3(AB=c) | [Fd]2 [Fd]2 [Fd]2 [Fd]2 | [Fd]3 [Ec] [DB]2 (3(FBc) | %27
w: |||
w: fall- eth. * * *|Swift- ly do the|mo- ments fly, * * *|
w: |||
 [Fd]2 [Fd]2 [Fd]2 [Fd]2 | [Ge]3 [Gd] [Gc]2 (3(EGc) | [GB]2 [GB]2 (BABc) | [Fd]2 [Fd]2 (dFBd) | %31
w: ||||
w: Har- vest days are|go- ing by, * * *|Go- ing, * * * *|go- ing, * * * *|
w: ||||
 [Af]2 [Ge]2 [Fd]2 [Ec]2 | [DB]4 z |] %33
w: ||
w: go- ing, go- ing|by.|
w: ||
V:2
 x3 | x8 | x8 | x8 | x6 E x | x8 | x8 | x8 | x8 | x8 | x8 | x8 | x8 | x8 | x8 | x8 | x8 || x8 | %18
 x8 | x8 | x8 | x8 | x8 | x8 | x8 | x8 | x8 | x8 | x8 | x8 | x8 | x8 | x5 |] %33
V:3
 z3 | [B,,F,]2 z2 [F,,F,]2 z2 | [B,,F,]2 z2 [F,,F,]2 z2 | [B,,F,]2 z2 [F,,F,]2 z2 | %4
 [C,F,]2 z2 [F,,F,]2 z2 | [C,F,]2 z2 [F,,F,]2 z2 | [B,,F,]3 z [D,F,]2 z2 | E,2 B,2 A,2 G,2 | %8
 (F,2 E,2 D,2) C,2 | [B,,F,]2 z2 [F,,F,]2 z2 | [B,,F,]2 z2 [F,,F,]2 z2 | [B,,F,]2 z2 [F,,F,]2 z2 | %12
 [=B,,^G,]2 z2 [B,,G,]2 z2 | [C,A,]2 z2 [=E,G,B,C]2 z2 | [F,,F,]3 z [C,F,A,]2 z2 | %15
 [C,,C,]2 z2 [=E,G,B,C]2 z2 | ([F,A,]2 E,2 D,2 C,2) || [B,,B,]2 [B,,B,]2 [B,,B,]2 [B,,B,]2 | %18
 [B,,B,]3 [B,,B,] [B,,B,]2 z2 | [B,,B,]2 [B,,B,]2 [B,,B,]2 [B,,B,]2 | [C,F,A,]4 [F,A,]2 z2 | %21
 [F,C]2 [F,C]2 [F,C]2 [F,C]2 | [F,A,]3 [F,B,] [F,A,]2 z2 | [F,C]2 [F,C]2 [F,C]2 [F,A,]2 | %24
 [B,,B,]4 ([B,,F,B,]2 D,2) | [B,,B,]2 [B,,B,]2 [B,,B,]2 [B,,B,]2 | [B,,B,]3 [B,,B,] [B,,B,]2 z2 | %27
 [G,=B,]2 [G,B,]2 [G,B,]2 [G,B,]2 | [C,C]3 [D,=B,] [E,C]2 z2 | [=E,^C]2 [E,C]2 z4 | %30
 [F,B,]2 [F,B,]2 z4 | [F,C]2 [F,C]2 [F,A,]2 [F,A,]2 | [B,,B,]4 z |] %33

